vendor/shopware/storefront/Resources/app/storefront/dist/assets/icon/default/editor-bold.svg

<svg xmlns="http://www.w3.org/2000/svg" width="12" height="12" viewBox="0 0 12 12">
  <path fill="#758CA3" fill-rule="evenodd" d="M4.14285714,5 L7,5 C7.55228475,5 8,4.55228475 8,4 L8,3 C8,2.44771525 7.55228475,2 7,2 L4,2 L4,5 L4.14285714,5 Z M4,10 L8,10 C8.55228475,10 9,9.55228475 9,9 L9,8 C9,7.44771525 8.55228475,7 8,7 L7,7 L4,7 L4,10 Z M2,10 L2,2 C1.44771525,2 1,1.55228475 1,1 C1,0.44771525 1.44771525,0 2,0 L7,0 C8.65685425,-3.33066907e-16 10,1.34314575 10,3 L10,4 C10,4.53465218 9.86013881,5.03663803 9.61500726,5.47136672 C10.4479054,6.00443521 11,6.93774331 11,8 L11,9 C11,10.6568542 9.65685425,12 8,12 L2,12 C1.44771525,12 1,11.5522847 1,11 C1,10.4477153 1.44771525,10 2,10 Z"/>
</svg>

<svg xmlns="http://www.w3.org/2000/svg" width="12" height="12" viewBox="0 0 12 12"><path fill="#758CA3" fill-rule="evenodd" d="M4.1429 5H7c.5523 0 1-.4477 1-1V3c0-.5523-.4477-1-1-1H4v3h.1429zM4 10h4c.5523 0 1-.4477 1-1V8c0-.5523-.4477-1-1-1H4v3zm-2 0V2c-.5523 0-1-.4477-1-1s.4477-1 1-1h5c1.6569 0 3 1.3431 3 3v1a2.9863 2.9863 0 0 1-.385 1.4714C10.448 6.0044 11 6.9377 11 8v1c0 1.6569-1.3431 3-3 3H2c-.5523 0-1-.4477-1-1s.4477-1 1-1z"/></svg>
